!!!OTL: 98b. Die Juedin.
!!!ODT: 1840
!!!ARE: Europa, Mitteleuropa, Deutschland, Frankfurt; Bergstrasse; Baden
!!!SCT: E0098A
!!!TXL: @@DE
!!!YEM: Copyright 1995, estate of Helmut Schaffrath.
**kern	**text
*ICvox	*
!! Mixed meters:  3/4; 2/4
*M3/4	*
*k[f#c#]	*
*D:	*
!LO:TX:a:t=Sehr mäßig.	!
!LO:TX:a:t=Aus der Gegend v. Frankf. , der Bergſtraße u. dem Badenſchen. 1840.	!
{8d	Es
=1	=1
8d	war
8f#	ein
4a	ſtol-
4e	-ʒe
=2	=2
8f#L	Jü-
8eJ	.
4d	-din,
8r}	.
{8dd	ein
=3	=3
8cc#	wunder-
8b	.
4cc#	-ſchö-
4b	-nes
=4	=4
2a	Weib;
8r}	.
{8a	die
=5	=5
*M2/4	*
8dd	hatt'
8a	eine
8a	ſchö-
8f#	-ne
=6	=6
4b	Toch-
8b}	-ter,
{8b	ihr
=7	=7
8b	Haar
8b	war
8dd	ſein
8b	ge-
=8	=8
*M3/4	*
4a	-floch-
4f#}	-ten,
{4a	ʒum
=9	=9
16bL	Tanʒ
16aJ	.
16gL	war
16f#J	.
4g	ſie
4a	be-
=10	=10
2f#	-reit.
8r}	.
==	==
!!!AGN: erzaehlendes Volks - Lied, Sage, Liebe, Leid, Ballade ?
!!!ONB: ESAC (Essen Associative Code) Database: ERK1
!!!AMT: irregular
!!!AIN: vox
!!!EED: Helmut Schaffrath
!!!EEV: 1.0
!!!GTL: Liebesgeschichten mit tragischem Schluss
!!!URL-scan: https://rosdok.uni-rostock.de/mcrviewer/recordIdentifier/rosdok_ppn745146120/iview2/phys_0415.iview2?x=-422.27491384562836&y=1104.3684599045664&scale=0.554360769283424&rotation=0&layout=singlePageLayout
!!!ENC: Anna Maria Matuszewska
!!!EEV: 2024/11/29
*-	*-
